X: 43523
T: Yn Coayl Jeh Ny Baatyn Skeddan
R: waltz
M: 3/4
K: Dmajor
F2|G2 A2 c2|d4 ed|=c2 dc B2|A4 FG|
A2 B2 c2|d2 e3d|d2 c4|c4 BA|
F2 A2 G2|E4 DE|F2 D2 EF|G4 FG|
Ad3 B2|A2 F2 D2|E2 D4|D4||

